X:683
T:The humours of Ennistymon
T:Hartigan's fancy
P:First two parts are Hartigan's fancy
R:Jig
O:Ireland
P:See also: The queen of the rushes
D:Dervish
B:Bulmer & Sharpley 3 n49- is a different tune
B:Ceol Rince 1 n4
B:Bulmer & Sharpley 3 n49-
B:1st 2 pts- O'Neill's 816
S:1st 2 pts- O'Neill's 816
Z:1st 2 pts- Transcription:Dan G. Petersen, Slight arrangement, chords:Mike Long
S:rest- Henrik Norbeck
Z:rest- Transcription:Henrik Norbeck(?), chords:Mike Long
M:6/8
L:1/8
K:G
D|\
"G"~B3 GBd|"C"cBc ABc|"G"~B3 GBd|"D"cAG FGA|\
"G"~B3 GBd|"C"cBc ABc|"G"ded "D"cAF|"G"AGF G2:|
|:d|\
"D"~f3 fed|cAG FGA|"G"~g3 gfg|"D"afd d2e|\
"D"fag fed|"(C)"cAG FGA|"G"B/c/dB "D"cAF|"G"AGF G2:|
d|\
"G"gdB gdB|"C"ecA ecA|"G"~B3 GBd|"D"cAG FGA|\
"G"gdB gdB|"C"ecA ecA|"G"~B3 GBd|"D"cAF "G"G2d||
"G"gdB gdB|"C"ecA ecA|"G"~B3 GBd|"D"cAG FGA|\
"G"~B3 GBd|"C"cBc ABc|"G"ded "D"cAF|"G"AGF G2|]
